Papirus-nordic/32x32/places/folder-red-mail.svg

<svg xmlns="http://www.w3.org/2000/svg" width="32" height="32" version="1"><rect width="25" height="16" x="3" y="12" rx="1.25" ry="1.25" opacity=".2"/><path d="M3 21.75c0 .692.558 1.25 1.25 1.25h22.5c.692 0 1.25-.558 1.25-1.25V8.25C28 7.558 27.442 7 26.75 7H14v-.75C14 5.558 13.443 5 12.75 5h-8.5C3.558 5 3 5.558 3 6.25" fill="#ae4f58"/><rect width="25" height="16" x="3" y="10" rx="1.25" ry="1.25" opacity=".2"/><rect width="21" height="10" x="5" y="9" rx="1.25" ry="1.25" fill="#e4e4e4"/><rect width="25" height="16" x="3" y="11" rx="1.25" ry="1.25" fill="#bf616a"/><path d="M4.25 5C3.558 5 3 5.558 3 6.25v1C3 6.558 3.558 6 4.25 6h8.5c.693 0 1.25.558 1.25 1.25V8h12.75c.692 0 1.25.557 1.25 1.25v-1C28 7.558 27.442 7 26.75 7H14v-.75C14 5.558 13.443 5 12.75 5h-8.5z" opacity=".1" fill="#fff"/><path d="M16 13a6 6 0 0 0 0 12h3.75s.703-.301.75-1.051c0-.75-.75-.949-.75-.949H16a3.915 3.915 0 0 1-.582-.047c-.7-.079-1.256-.299-1.676-.652l-.006-.004A4 4 0 1 1 20 19c0 .454-.092.745-.24 1.002L19.75 20h-.934c.112-.314.184-.648.184-1a3 3 0 1 0-3 3h3.75c.542-.05.923-.371 1.27-.576.762-.544.98-1.31.98-2.424a6 6 0 0 0-6-6zm0 5a1 1 0 1 1 0 2 1 1 0 0 1 0-2z" fill="#974a4d"/></svg>

<svg xmlns="http://www.w3.org/2000/svg" width="32" height="32" version="1">
 <rect style="opacity:0.2" width="25" height="16" x="3" y="12" rx="1.25" ry="1.25"/>
 <path style="fill:#ae4f58" d="M 3,21.75 C 3,22.442 3.5575,23 4.25,23 H 26.75 C 27.442,23 28,22.442 28,21.75 V 8.25 C 28,7.5575 27.442,7 26.75,7 H 14 V 6.25 C 14,5.5575 13.443,5 12.75,5 H 4.25 C 3.5575,5 3,5.5575 3,6.25"/>
 <rect style="opacity:0.2" width="25" height="16" x="3" y="10" rx="1.25" ry="1.25"/>
 <rect style="fill:#e4e4e4" width="21" height="10" x="5" y="9" rx="1.25" ry="1.25"/>
 <rect style="fill:#bf616a" width="25" height="16" x="3" y="11" rx="1.25" ry="1.25"/>
 <path style="opacity:0.1;fill:#ffffff" d="M 4.25 5 C 3.5575 5 3 5.5575 3 6.25 L 3 7.25 C 3 6.5575 3.5575 6 4.25 6 L 12.75 6 C 13.443 6 14 6.5575 14 7.25 L 14 8 L 26.75 8 C 27.442 8 28 8.5575 28 9.25 L 28 8.25 C 28 7.5575 27.442 7 26.75 7 L 14 7 L 14 6.25 C 14 5.5575 13.443 5 12.75 5 L 4.25 5 z"/>
 <path style="fill:#974a4d" d="M 16,13 C 12.687,13 10,15.687 10,19 10,22.314 12.687,25 16,25 H 19.75 C 19.75,25 20.453,24.699 20.5,23.949 20.5,23.199 19.75,23 19.75,23 H 16 C 15.805,22.999 15.611,22.983 15.418,22.953 14.718,22.874 14.162,22.654 13.742,22.301 L 13.736,22.297 C 12.65,21.551 12,20.318 12,19 12,16.791 13.791,15 16,15 18.209,15 20,16.791 20,19 20,19.454 19.908,19.745 19.76,20.002 19.756,20.002 19.753,20 19.75,20 H 18.816 C 18.928,19.686 19,19.352 19,19 19,17.343 17.657,16 16,16 14.344,16 13,17.343 13,19 13,20.657 14.343,22 16,22 H 19.75 C 20.292,21.95 20.673,21.629 21.02,21.424 21.782,20.88 22,20.114 22,19 22,15.686 19.314,13 16,13 Z M 16,18 C 16.552,18 17,18.448 17,19 17,19.552 16.552,20 16,20 15.448,20 15,19.552 15,19 15,18.448 15.448,18 16,18 Z"/>
</svg>
